X: 1
T: New Five Cents - D
R: reel
M: 4/4
L: 1/8
K: Dmaj
FG|:"D" A2 f2 fgfe|"G" d2 B2 BcdB|"D" A2 F2 fafd|"A" e2 ee e2 FG|
dB|:"D" A2 F2 F2 dB|A2 F2 F2 dB|A2 D2 DEFD|"A" E2 EE E2 dB|

